styles/1/Numix-Circle/48x48/apps/dolphin.svg

<?xml version="1.0" encoding="UTF-8" standalone="no"?>
<svg
   xmlns:dc="http://purl.org/dc/elements/1.1/"
   xmlns:cc="http://creativecommons.org/ns#"
   xmlns:rdf="http://www.w3.org/1999/02/22-rdf-syntax-ns#"
   xmlns:svg="http://www.w3.org/2000/svg"
   xmlns="http://www.w3.org/2000/svg"
   xmlns:xlink="http://www.w3.org/1999/xlink"
   xmlns:sodipodi="http://sodipodi.sourceforge.net/DTD/sodipodi-0.dtd"
   xmlns:inkscape="http://www.inkscape.org/namespaces/inkscape"
   width="48"
   viewBox="0 0 13.546667 13.546667"
   height="48"
   id="svg2"
   version="1.1"
   inkscape:version="0.91 r"
   sodipodi:docname="dolphin.svg">
  <metadata
     id="metadata331">
    <rdf:RDF>
      <cc:Work
         rdf:about="">
        <dc:format>image/svg+xml</dc:format>
        <dc:type
           rdf:resource="http://purl.org/dc/dcmitype/StillImage" />
        <dc:title />
      </cc:Work>
    </rdf:RDF>
  </metadata>
  <sodipodi:namedview
     pagecolor="#ffffff"
     bordercolor="#666666"
     borderopacity="1"
     objecttolerance="10"
     gridtolerance="10"
     guidetolerance="10"
     inkscape:pageopacity="0"
     inkscape:pageshadow="2"
     inkscape:window-width="1280"
     inkscape:window-height="998"
     id="namedview329"
     showgrid="true"
     inkscape:zoom="8.569263"
     inkscape:cx="29.698472"
     inkscape:cy="22.255939"
     inkscape:window-x="0"
     inkscape:window-y="0"
     inkscape:window-maximized="1"
     inkscape:current-layer="layer3"
     showguides="true"
     inkscape:guide-bbox="true">
    <inkscape:grid
       type="xygrid"
       id="grid3308" />
  </sodipodi:namedview>
  <defs
     id="defs4">
    <linearGradient
       id="linearGradient4140">
      <stop
         style="stop-color:#2684da;stop-opacity:1;"
         offset="0"
         id="stop4143" />
      <stop
         style="stop-color:#3f96e5;stop-opacity:1;"
         offset="1"
         id="stop4145" />
    </linearGradient>
    <linearGradient
       inkscape:collect="always"
       xlink:href="#linearGradient4140"
       id="linearGradient4147"
       x1="-27"
       y1="13"
       x2="-24"
       y2="13"
       gradientUnits="userSpaceOnUse" />
  </defs>
  <g
     inkscape:groupmode="layer"
     id="layer1"
     inkscape:label="Shadow"
     sodipodi:insensitive="true">
    <path
       style="opacity:0.05;fill:#000000;fill-opacity:1;stroke:none"
       d="M 25,2 C 12.297451,2 2,12.297451 2,25 2,31.367153 4.6007106,37.116628 8.78125,41.28125 12.865755,44.99361 18.29568,47.25 24.25,47.25 c 12.702549,0 23,-10.297451 23,-23 0,-5.95432 -2.25639,-11.384245 -5.96875,-15.46875 C 37.116628,4.6007105 31.367153,2 25,2 z M 41.28125,8.78125 C 45.135604,12.894061 47.5,18.418655 47.5,24.5 c 0,12.702549 -10.297451,23 -23,23 C 18.418655,47.5 12.894061,45.135604 8.78125,41.28125 12.940939,45.4251 18.664604,48 25,48 37.702549,48 48,37.702549 48,25 48,18.664604 45.4251,12.940939 41.28125,8.78125 z"
       transform="scale(0.28222223,0.28222223)"
       id="path3978"
       inkscape:connector-curvature="0" />
    <path
       style="opacity:0.1;fill:#000000;fill-opacity:1;stroke:none"
       d="M 41.28125,8.78125 C 44.99361,12.865755 47.25,18.29568 47.25,24.25 c 0,12.702549 -10.297451,23 -23,23 -5.95432,0 -11.384245,-2.25639 -15.46875,-5.96875 C 12.894061,45.135604 18.418655,47.5 24.5,47.5 c 12.702549,0 23,-10.297451 23,-23 0,-6.081345 -2.364396,-11.605939 -6.21875,-15.71875 z"
       transform="scale(0.28222223,0.28222223)"
       id="path3976"
       inkscape:connector-curvature="0" />
    <path
       transform="matrix(4.3274074,0,0,3.2455556,117.19278,-35.348334)"
       d="m -24,13 a 1.5,2 0 1 1 -3,0 1.5,2 0 1 1 3,0 z"
       sodipodi:ry="2"
       sodipodi:rx="1.5"
       sodipodi:cy="13"
       sodipodi:cx="-25.5"
       id="path3952"
       style="opacity:0.2;fill:#000000;fill-opacity:1;stroke:none"
       sodipodi:type="arc" />
  </g>
  <g
     inkscape:groupmode="layer"
     id="layer2"
     inkscape:label="Base">
    <path
       sodipodi:type="arc"
       style="fill:url(#linearGradient4147);fill-opacity:1;stroke:none"
       id="path3942"
       sodipodi:cx="-25.5"
       sodipodi:cy="13"
       sodipodi:rx="1.5"
       sodipodi:ry="2"
       d="m -24,13 a 1.5,2 0 1 1 -3,0 1.5,2 0 1 1 3,0 z"
       transform="matrix(0,-4.3274075,3.2455556,0,-35.429918,-103.60974)" />
    <path
       style="opacity:0.1;fill:#000000;fill-opacity:1;stroke:none"
       d="M 40.03125 7.53125 C 43.74361 11.615755 46 17.04568 46 23 C 46 35.702549 35.702549 46 23 46 C 17.04568 46 11.615755 43.74361 7.53125 40.03125 C 11.709416 44.322508 17.537578 47 24 47 C 36.702549 47 47 36.702549 47 24 C 47 17.537578 44.322508 11.709416 40.03125 7.53125 z "
       transform="scale(0.28222223,0.28222223)"
       id="path4027" />
  </g>
  <g
     inkscape:groupmode="layer"
     id="layer3"
     inkscape:label="Symbol">
    <path
       style="opacity:0.1;fill:#000000;fill-opacity:1;fill-rule:nonzero;stroke:none"
       d="M 13.8125 16 C 13.371574 16.05099 12.997 16.464595 13 16.9375 L 13 34.03125 C 13.000058 34.53115 13.434329 35 13.90625 35 L 36 35 C 36.472925 35 37 34.4999 37 34 L 37 19 C 37 18.5001 36.472925 18 36 18 L 27 18 L 27 17 C 26.9987 16.35213 26.550909 16 26 16 L 13.8125 16 z M 27.1875 21.75 C 27.382431 21.758 27.750156 22.125007 28.125 22.625 C 28.585831 23.242 28.8125 24.15625 28.8125 24.15625 C 28.8125 24.15625 30.852006 25.859 31.59375 27.5 C 32.339502 29.137 31.6875 30.59375 31.6875 30.59375 C 31.6875 30.59375 32 31.472249 32 31.78125 C 32 32.093256 31.269778 32.3355 30.625 31.8125 C 29.972226 31.2855 27.46875 28.65625 27.46875 28.65625 C 27.46875 28.65625 26.835147 28.71875 25.8125 28.71875 C 24.796852 28.71875 24.09375 28.0625 24.09375 28.0625 C 24.09375 28.0625 24.410291 28.160502 25.25 27.9375 C 26.081712 27.7225 25.964795 27.434001 25.375 27.125 C 24.789203 26.817001 24.140214 26.78075 22.59375 27.34375 C 21.047286 27.90275 19.746176 29.594002 19.53125 29.875 C 19.308327 30.145 19.187254 30.215002 19.15625 29.875 C 19.125261 29.523 20.015732 28.648 21.40625 27.5 C 22.79177 26.354998 24.65625 26.59375 24.65625 26.59375 C 24.65625 26.59375 23.635738 25.7305 21.4375 26.8125 C 19.251258 27.8905 18.960623 29.53075 18.59375 29.71875 C 18.222879 29.90175 18.070845 29.83225 18.34375 28.65625 C 18.628652 27.48025 20.031032 25.43 20.84375 24.625 C 21.644473 23.824 23.860266 23.190999 25.34375 23.375 C 26.827233 23.558999 26.847333 23.464751 27.03125 23.09375 C 27.218202 22.72275 26.968785 22.000251 27.09375 21.78125 C 27.117767 21.742263 27.140498 21.75 27.1875 21.75 z M 16.65625 29.21875 C 17.301026 29.19075 17.96875 30.1875 17.96875 30.1875 C 17.96875 30.1875 17.273037 30.4375 16.65625 30.4375 C 16.03547 30.4375 15.664246 29.7145 16.375 29.3125 C 16.460971 29.261501 16.566282 29.222754 16.65625 29.21875 z M 18.03125 30.4375 C 18.03125 30.4375 17.996089 31.441248 17.53125 31.78125 C 17.066412 32.12125 16.312802 31.929249 16.46875 31.28125 C 16.624695 30.62925 18.03125 30.4375 18.03125 30.4375 z "
       transform="scale(0.28222223,0.28222223)"
       id="path45" />
    <path
       style="fill:#ececec;fill-opacity:1;fill-rule:nonzero;stroke:none"
       d="M 12.8125 15 C 12.371574 15.05096 11.997 15.496148 12 15.96875 L 12 33.03125 C 12.000058 33.53083 12.434329 34 12.90625 34 L 35 34 C 35.472922 34 36 33.499579 36 33 L 36 18.03125 C 36 17.531671 35.472922 17.03125 35 17.03125 L 26 17.03125 L 26 16 C 25.998699 15.352546 25.550907 15 25 15 L 12.8125 15 z M 26.1875 20.75 C 26.382431 20.758 26.750156 21.125007 27.125 21.625 C 27.585831 22.242 27.8125 23.15625 27.8125 23.15625 C 27.8125 23.15625 29.852006 24.859 30.59375 26.5 C 31.339502 28.137 30.6875 29.59375 30.6875 29.59375 C 30.6875 29.59375 31 30.472249 31 30.78125 C 31 31.093256 30.269778 31.3355 29.625 30.8125 C 28.972226 30.2855 26.46875 27.65625 26.46875 27.65625 C 26.46875 27.65625 25.835147 27.71875 24.8125 27.71875 C 23.796852 27.71875 23.09375 27.0625 23.09375 27.0625 C 23.09375 27.0625 23.410291 27.160502 24.25 26.9375 C 25.081712 26.7225 24.964795 26.434001 24.375 26.125 C 23.789203 25.817001 23.140214 25.78075 21.59375 26.34375 C 20.047286 26.90275 18.746176 28.594002 18.53125 28.875 C 18.308327 29.145 18.187254 29.215002 18.15625 28.875 C 18.125261 28.523 19.015732 27.648 20.40625 26.5 C 21.79177 25.354998 23.65625 25.59375 23.65625 25.59375 C 23.65625 25.59375 22.635738 24.7305 20.4375 25.8125 C 18.251258 26.8905 17.960623 28.53075 17.59375 28.71875 C 17.222879 28.90175 17.070845 28.83225 17.34375 27.65625 C 17.628652 26.48025 19.031032 24.43 19.84375 23.625 C 20.644473 22.824 22.860266 22.190999 24.34375 22.375 C 25.827233 22.558999 25.847333 22.464751 26.03125 22.09375 C 26.218202 21.72275 25.968785 21.000251 26.09375 20.78125 C 26.117767 20.742263 26.140498 20.75 26.1875 20.75 z M 15.65625 28.21875 C 16.301026 28.19075 16.96875 29.1875 16.96875 29.1875 C 16.96875 29.1875 16.273037 29.4375 15.65625 29.4375 C 15.03547 29.4375 14.664246 28.7145 15.375 28.3125 C 15.460971 28.261501 15.566282 28.222754 15.65625 28.21875 z M 17.03125 29.4375 C 17.03125 29.4375 16.996089 30.441248 16.53125 30.78125 C 16.066412 31.12125 15.312802 30.929249 15.46875 30.28125 C 15.624695 29.62925 17.03125 29.4375 17.03125 29.4375 z "
       transform="scale(0.28222223,0.28222223)"
       id="path55" />
  </g>
</svg>

<svg xmlns="http://www.w3.org/2000/svg" viewBox="0 0 48 48">
 <defs>
  <linearGradient id="linearGradient3764" x1="1" x2="47" gradientUnits="userSpaceOnUse" gradientTransform="matrix(0,-1,1,0,-1.5e-6,47.999998)">
   <stop style="stop-color:#2986db;stop-opacity:1"/>
   <stop offset="1" style="stop-color:#3a90de;stop-opacity:1"/>
  </linearGradient>
 </defs>
 <g>
  <path d="m 36.31 5 c 5.859 4.062 9.688 10.831 9.688 18.5 c 0 12.426 -10.07 22.5 -22.5 22.5 c -7.669 0 -14.438 -3.828 -18.5 -9.688 c 1.037 1.822 2.306 3.499 3.781 4.969 c 4.085 3.712 9.514 5.969 15.469 5.969 c 12.703 0 23 -10.298 23 -23 c 0 -5.954 -2.256 -11.384 -5.969 -15.469 c -1.469 -1.475 -3.147 -2.744 -4.969 -3.781 z m 4.969 3.781 c 3.854 4.113 6.219 9.637 6.219 15.719 c 0 12.703 -10.297 23 -23 23 c -6.081 0 -11.606 -2.364 -15.719 -6.219 c 4.16 4.144 9.883 6.719 16.219 6.719 c 12.703 0 23 -10.298 23 -23 c 0 -6.335 -2.575 -12.06 -6.719 -16.219 z" style="opacity:0.05"/>
  <path d="m 41.28 8.781 c 3.712 4.085 5.969 9.514 5.969 15.469 c 0 12.703 -10.297 23 -23 23 c -5.954 0 -11.384 -2.256 -15.469 -5.969 c 4.113 3.854 9.637 6.219 15.719 6.219 c 12.703 0 23 -10.298 23 -23 c 0 -6.081 -2.364 -11.606 -6.219 -15.719 z" style="opacity:0.1"/>
  <path d="m 31.25 2.375 c 8.615 3.154 14.75 11.417 14.75 21.13 c 0 12.426 -10.07 22.5 -22.5 22.5 c -9.708 0 -17.971 -6.135 -21.12 -14.75 a 23 23 0 0 0 44.875 -7 a 23 23 0 0 0 -16 -21.875 z" style="opacity:0.2"/>
 </g>
 <g>
  <path d="m 24 1 c 12.703 0 23 10.297 23 23 c 0 12.703 -10.297 23 -23 23 -12.703 0 -23 -10.297 -23 -23 0 -12.703 10.297 -23 23 -23 z" style="fill:url(#linearGradient3764);fill-opacity:1"/>
 </g>
 <g>
  <path d="m 40.03 7.531 c 3.712 4.084 5.969 9.514 5.969 15.469 0 12.703 -10.297 23 -23 23 c -5.954 0 -11.384 -2.256 -15.469 -5.969 4.178 4.291 10.01 6.969 16.469 6.969 c 12.703 0 23 -10.298 23 -23 0 -6.462 -2.677 -12.291 -6.969 -16.469 z" style="opacity:0.1"/>
 </g>
 <g transform="matrix(3.543307,0,0,3.543307,1.7839312e-5,0.00299989)">
  <path d="m 13.813 16 c -0.441 0.051 -0.816 0.465 -0.813 0.938 l 0 17.09 c 0 0.5 0.434 0.969 0.906 0.969 l 22.09 0 c 0.473 0 1 -0.5 1 -1 l 0 -15 c 0 -0.5 -0.527 -1 -1 -1 l -9 0 0 -1 c 0 -0.648 -0.449 -1 -1 -1 l -12.188 0 z m 13.375 5.75 c 0.195 0.008 0.563 0.375 0.938 0.875 0.461 0.617 0.688 1.531 0.688 1.531 0 0 2.04 1.703 2.781 3.344 0.746 1.637 0.094 3.094 0.094 3.094 0 0 0.313 0.878 0.313 1.188 0 0.312 -0.73 0.554 -1.375 0.031 -0.653 -0.527 -3.156 -3.156 -3.156 -3.156 0 0 -0.634 0.063 -1.656 0.063 -1.016 0 -1.719 -0.656 -1.719 -0.656 0 0 0.317 0.098 1.156 -0.125 0.832 -0.215 0.715 -0.503 0.125 -0.813 -0.586 -0.308 -1.235 -0.344 -2.781 0.219 -1.546 0.559 -2.848 2.25 -3.063 2.531 -0.223 0.27 -0.344 0.34 -0.375 0 -0.031 -0.352 0.859 -1.227 2.25 -2.375 1.386 -1.145 3.25 -0.906 3.25 -0.906 0 0 -1.021 -0.863 -3.219 0.219 -2.186 1.078 -2.477 2.718 -2.844 2.906 -0.371 0.183 -0.523 0.113 -0.25 -1.063 0.285 -1.176 1.687 -3.226 2.5 -4.03 0.801 -0.801 3.02 -1.434 4.5 -1.25 1.483 0.184 1.504 0.09 1.688 -0.281 0.187 -0.371 -0.062 -1.093 0.063 -1.313 0.024 -0.039 0.047 -0.031 0.094 -0.031 z m -10.531 7.469 c 0.645 -0.028 1.313 0.969 1.313 0.969 0 0 -0.696 0.25 -1.313 0.25 -0.621 0 -0.992 -0.723 -0.281 -1.125 0.086 -0.051 0.191 -0.09 0.281 -0.094 z m 1.375 1.219 c 0 0 -0.035 1 -0.5 1.344 -0.465 0.34 -1.218 0.148 -1.063 -0.5 0.156 -0.652 1.563 -0.844 1.563 -0.844 z" transform="scale(0.28222223,0.28222223)" style="fill:#000;opacity:0.1;fill-opacity:1;stroke:none;fill-rule:nonzero"/>
  <path d="m 12.813 15 c -0.441 0.051 -0.816 0.496 -0.813 0.969 l 0 17.06 c 0 0.5 0.434 0.969 0.906 0.969 l 22.09 0 c 0.473 0 1 -0.5 1 -1 l 0 -14.969 c 0 -0.5 -0.527 -1 -1 -1 l -9 0 0 -1.031 c 0 -0.647 -0.449 -1 -1 -1 l -12.188 0 z m 13.375 5.75 c 0.195 0.008 0.563 0.375 0.938 0.875 0.461 0.617 0.688 1.531 0.688 1.531 0 0 2.04 1.703 2.781 3.344 0.746 1.637 0.094 3.094 0.094 3.094 0 0 0.313 0.878 0.313 1.188 0 0.312 -0.73 0.554 -1.375 0.031 -0.653 -0.527 -3.156 -3.156 -3.156 -3.156 0 0 -0.634 0.063 -1.656 0.063 -1.016 0 -1.719 -0.656 -1.719 -0.656 0 0 0.317 0.098 1.156 -0.125 0.832 -0.215 0.715 -0.503 0.125 -0.813 -0.586 -0.308 -1.235 -0.344 -2.781 0.219 -1.546 0.559 -2.848 2.25 -3.063 2.531 -0.223 0.27 -0.344 0.34 -0.375 0 -0.031 -0.352 0.859 -1.227 2.25 -2.375 1.386 -1.145 3.25 -0.906 3.25 -0.906 0 0 -1.021 -0.863 -3.219 0.219 -2.186 1.078 -2.477 2.718 -2.844 2.906 -0.371 0.183 -0.523 0.113 -0.25 -1.063 0.285 -1.176 1.687 -3.226 2.5 -4.03 0.801 -0.801 3.02 -1.434 4.5 -1.25 1.483 0.184 1.504 0.09 1.688 -0.281 0.187 -0.371 -0.062 -1.093 0.063 -1.313 0.024 -0.039 0.047 -0.031 0.094 -0.031 z m -10.531 7.469 c 0.645 -0.028 1.313 0.969 1.313 0.969 0 0 -0.696 0.25 -1.313 0.25 -0.621 0 -0.992 -0.723 -0.281 -1.125 0.086 -0.051 0.191 -0.09 0.281 -0.094 z m 1.375 1.219 c 0 0 -0.035 1 -0.5 1.344 -0.465 0.34 -1.218 0.148 -1.063 -0.5 0.156 -0.652 1.563 -0.844 1.563 -0.844 z" transform="scale(0.28222223,0.28222223)" style="fill:#ececec;fill-opacity:1;stroke:none;fill-rule:nonzero"/>
 </g>
</svg>
